app/assets/images/idv/state-id-and-military-id.svg

<svg width="112" height="94" viewBox="0 0 112 94" fill="none" xmlns="http://www.w3.org/2000/svg">
<circle cx="71.5703" cy="40.7949" r="40" fill="#EBF3FA"/>
<path fill-rule="evenodd" clip-rule="evenodd" d="M84.8656 64.2068H5.14062C2.93162 64.2068 1.14062 62.4158 1.14062 60.2068V21.3838C1.14062 19.1748 2.93162 17.3838 5.14062 17.3838H84.8656C87.0746 17.3838 88.8656 19.1748 88.8656 21.3838V60.2068C88.8656 62.4158 87.0746 64.2068 84.8656 64.2068Z" fill="white"/>
<path fill-rule="evenodd" clip-rule="evenodd" d="M84.8656 64.2068H5.14062C2.93162 64.2068 1.14062 62.4158 1.14062 60.2068V21.3838C1.14062 19.1748 2.93162 17.3838 5.14062 17.3838H84.8656C87.0746 17.3838 88.8656 19.1748 88.8656 21.3838V60.2068C88.8656 62.4158 87.0746 64.2068 84.8656 64.2068Z" stroke="#112E51"/>
<path fill-rule="evenodd" clip-rule="evenodd" d="M28.9117 59.1908H8.36268C7.45523 59.1908 6.71875 58.5297 6.71875 57.7151V34.1036C6.71875 33.2891 7.45523 32.6279 8.36268 32.6279H28.9117C29.8192 32.6279 30.5557 33.2891 30.5557 34.1036V57.7151C30.5557 58.5297 29.8192 59.1908 28.9117 59.1908Z" fill="#EBF3FA"/>
<mask id="mask0_628_24359" style="mask-type:luminance" maskUnits="userSpaceOnUse" x="8" y="35" width="21" height="25">
<path fill-rule="evenodd" clip-rule="evenodd" d="M12.9302 40.8143V41.4201C12.368 41.513 11.9389 41.9971 11.9389 42.5807V43.9542C11.9389 44.5485 12.3828 45.0384 12.9598 45.1198C13.1653 47.0629 14.3941 48.7052 16.1038 49.5074V51.3116H15.7068C11.763 51.3116 8.56641 54.4745 8.56641 58.3764V59.2583H28.4012V58.3764C28.4012 54.4745 25.2038 51.3116 21.2608 51.3116H20.8638V49.5074C22.5735 48.7052 23.8023 47.0629 24.007 45.1198C24.5848 45.0384 25.0287 44.5485 25.0287 43.9542V42.5807C25.0287 41.9971 24.6004 41.513 24.0374 41.4201V40.8143C24.0374 37.7804 21.5509 35.3203 18.4842 35.3203C15.4166 35.3203 12.9302 37.7804 12.9302 40.8143Z" fill="white"/>
</mask>
<g mask="url(#mask0_628_24359)">
<path fill-rule="evenodd" clip-rule="evenodd" d="M1.28125 63.3686H35.6828V31.2109H1.28125V63.3686Z" fill="#C8D3DD"/>
</g>
<path d="M56.248 25.5156C56.248 24.4111 57.1435 23.5156 58.248 23.5156H81.5859C82.6905 23.5156 83.5859 24.4111 83.5859 25.5156V48.8535C83.5859 49.9581 82.6905 50.8535 81.5859 50.8535H58.248C57.1435 50.8535 56.248 49.9581 56.248 48.8535V25.5156Z" fill="#EBF3FA"/>
<rect x="6.71875" y="23.5156" width="44.4873" height="3.34375" rx="1.67188" fill="#C8D3DD"/>
<rect x="34.9043" y="31.4404" width="16.3027" height="3.34375" rx="1.67188" fill="#C8D3DD"/>
<rect x="34.9043" y="39.3652" width="16.3027" height="3.34375" rx="1.67188" fill="#C8D3DD"/>
<rect x="34.9043" y="47.29" width="16.3027" height="3.34375" rx="1.67188" fill="#C8D3DD"/>
<rect x="34.9043" y="55.8193" width="12.3" height="3.34375" rx="1.67188" fill="#C8D3DD"/>
<rect x="52.6738" y="55.8193" width="29.9717" height="3.34375" rx="1.67188" fill="#C8D3DD"/>
<path fill-rule="evenodd" clip-rule="evenodd" d="M101.098 93.2068H21.373C19.164 93.2068 17.373 91.4158 17.373 89.2068V50.3838C17.373 48.1748 19.164 46.3838 21.373 46.3838H101.098C103.307 46.3838 105.098 48.1748 105.098 50.3838V89.2068C105.098 91.4158 103.307 93.2068 101.098 93.2068Z" fill="white"/>
<path fill-rule="evenodd" clip-rule="evenodd" d="M101.098 93.2068H21.373C19.164 93.2068 17.373 91.4158 17.373 89.2068V50.3838C17.373 48.1748 19.164 46.3838 21.373 46.3838H101.098C103.307 46.3838 105.098 48.1748 105.098 50.3838V89.2068C105.098 91.4158 103.307 93.2068 101.098 93.2068Z" stroke="#112E51"/>
<path fill-rule="evenodd" clip-rule="evenodd" d="M45.1442 88.1908H24.5951C23.6877 88.1908 22.9512 87.5297 22.9512 86.7151V63.1036C22.9512 62.2891 23.6877 61.6279 24.5951 61.6279H45.1442C46.0516 61.6279 46.7881 62.2891 46.7881 63.1036V86.7151C46.7881 87.5297 46.0516 88.1908 45.1442 88.1908Z" fill="#EBF3FA"/>
<mask id="mask1_628_24359" style="mask-type:luminance" maskUnits="userSpaceOnUse" x="24" y="64" width="21" height="25">
<path fill-rule="evenodd" clip-rule="evenodd" d="M29.1626 69.8143V70.4201C28.6004 70.513 28.1713 70.9971 28.1713 71.5807V72.9542C28.1713 73.5485 28.6152 74.0384 29.1922 74.1198C29.3977 76.0629 30.6265 77.7052 32.3362 78.5074V80.3116H31.9392C27.9954 80.3116 24.7988 83.4745 24.7988 87.3764V88.2583H44.6336V87.3764C44.6336 83.4745 41.4362 80.3116 37.4932 80.3116H37.0962V78.5074C38.8059 77.7052 40.0347 76.0629 40.2394 74.1198C40.8172 74.0384 41.2611 73.5485 41.2611 72.9542V71.5807C41.2611 70.9971 40.8329 70.513 40.2698 70.4201V69.8143C40.2698 66.7804 37.7834 64.3203 34.7166 64.3203C31.6491 64.3203 29.1626 66.7804 29.1626 69.8143Z" fill="white"/>
</mask>
<g mask="url(#mask1_628_24359)">
<path fill-rule="evenodd" clip-rule="evenodd" d="M17.5137 92.3686H51.9153V60.2109H17.5137V92.3686Z" fill="#C8D3DD"/>
</g>
<path d="M72.4805 54.5156C72.4805 53.4111 73.3759 52.5156 74.4805 52.5156H97.8184C98.9229 52.5156 99.8184 53.4111 99.8184 54.5156V77.8535C99.8184 78.9581 98.9229 79.8535 97.8184 79.8535H74.4805C73.3759 79.8535 72.4805 78.9581 72.4805 77.8535V54.5156Z" fill="#EBF3FA"/>
<rect x="22.9512" y="52.5156" width="44.4873" height="3.34375" rx="1.67188" fill="#C8D3DD"/>
<rect x="51.1367" y="60.4404" width="16.3027" height="3.34375" rx="1.67188" fill="#C8D3DD"/>
<rect x="51.1367" y="68.3652" width="16.3027" height="3.34375" rx="1.67188" fill="#C8D3DD"/>
<rect x="51.1367" y="76.29" width="16.3027" height="3.34375" rx="1.67188" fill="#C8D3DD"/>
<rect x="51.1367" y="84.8193" width="12.3" height="3.34375" rx="1.67188" fill="#C8D3DD"/>
<rect x="68.9062" y="84.8193" width="29.9717" height="3.34375" rx="1.67188" fill="#C8D3DD"/>
<path d="M74.188 55.7272L83.0635 62.5809C83.272 62.8109 83.2934 63.3188 82.5567 64.2602C81.9748 65.0037 82.5599 65.5253 82.9132 65.6839V64.6376C82.9132 64.0475 83.5417 63.9 83.694 63.9H84.586C84.5802 63.7041 84.5722 63.279 84.586 63.1452C84.6031 62.978 84.4163 62.7833 84.1571 62.7833C83.9476 62.7833 83.6668 62.9897 83.5417 63.1452C83.3722 62.7335 83.6425 61.4814 83.917 61.1726C84.1914 60.8638 84.8604 60.8638 85.4436 60.6923C86.0268 60.5208 87.056 60.7438 87.2962 61.0525C87.4883 61.2995 87.7193 62.9508 87.8108 63.7456C87.8851 63.7342 88.1504 63.7182 88.617 63.7456C89.0836 63.773 89.1773 64.1801 89.1659 64.3803V65.7868C89.6119 65.7868 89.852 65.4095 89.9893 65.1007C90.1265 64.792 89.7663 64.243 89.4232 63.9C89.0801 63.5569 88.8228 63.0595 89.1659 62.6649C89.509 62.2704 97.5882 56.0609 97.8626 55.8894C98.1371 55.7178 98.5316 55.735 98.8404 55.8894C99.1491 56.0437 99.2521 57.2788 99.0462 57.7248C98.8404 58.1708 98.6346 58.7883 98.8404 59.2857C99.0462 59.7832 98.6689 60.2292 98.3944 60.6751C98.1199 61.1211 98.3429 61.2584 98.3944 61.8073C98.4459 62.3562 98.0685 62.6306 97.5882 63.0595C97.1079 63.4883 97.5196 63.6084 97.5882 64.0372C97.6568 64.466 96.7477 65.4781 96.3703 65.5982C95.9929 65.7182 95.9415 65.8383 95.8042 66.2157C95.667 66.5931 94.8094 66.9876 94.3977 67.0219C93.986 67.0562 93.986 67.5365 93.4371 67.7423C92.8882 67.9482 92.8539 67.5879 92.5623 67.9513C92.2707 68.3146 91.6874 68.6 91.0871 68.7017C90.4867 68.8034 90.3495 67.9513 90.1436 68.377C89.979 68.7176 89.5947 68.6104 89.4232 68.5142V70.6153C89.3203 70.6754 89.0561 70.8477 88.8228 71.0562C88.5312 71.3168 89.2688 72.2022 89.4232 72.4767C89.5776 72.7511 89.9035 72.8026 89.9893 72.4767C90.0579 72.2159 90.4753 72.2465 90.6754 72.2944L93.0597 73.3L90.2466 74.3394C90.1151 74.3394 89.8383 74.2756 89.7834 74.0204C89.7148 73.7015 89.3717 74.0204 89.1144 74.2263C88.8571 74.4321 88.9944 74.3394 88.394 74.2263C87.7936 74.1132 88.1539 74.4836 87.6049 75.0523C87.1658 75.5072 86.6893 76.0673 86.5059 76.2905H85.9431C85.9431 76.0466 85.3333 75.8684 84.7893 75.0523C84.2452 74.2362 83.8325 74.1987 83.6355 74.3394C83.4385 74.4801 83.0445 74.2362 83.007 74.0204C82.977 73.8478 82.5505 73.8922 82.341 73.936V74.3394H80.1272V72.2944C80.8245 72.2632 82.2171 72.2194 82.2096 72.2944C82.2003 72.3882 82.3128 72.6227 82.5567 72.6227C83.4572 72.6603 83.4948 71.3001 83.5417 71.0562C83.5792 70.8611 83.1383 70.681 82.9132 70.6153C82.9194 70.0931 82.9282 68.9794 82.9132 68.7017C82.8944 68.3546 82.341 68.167 82.022 68.2139C81.7031 68.2608 81.8626 68.4203 81.2153 68.7017C80.5681 68.9831 80.1459 68.1576 79.8739 67.9513C79.6019 67.7449 79.2454 67.9138 78.8608 67.8293C78.4762 67.7449 78.8421 67.0414 78.0541 67.0414C77.2661 67.0414 77.0608 66.6137 76.7584 66.4121C76.456 66.2105 76.708 65.656 76.5568 65.6056C76.4056 65.5552 76.0024 65.53 75.5488 65.2276C75.0952 64.9252 74.8936 64.396 74.9188 64.144C74.944 63.892 75.2212 63.4888 74.7172 63.3124C74.2132 63.136 73.8352 61.9516 73.9612 61.7752C74.0872 61.5988 74.188 60.9688 73.8352 60.616C73.4824 60.2632 73.3312 59.4316 73.4068 59.0536C73.4824 58.6756 73.684 58.7512 73.558 58.348C73.432 57.9448 73.0287 56.962 73.1799 56.1807C73.3009 55.5558 73.9024 55.618 74.188 55.7272Z" fill="#0071BB"/>
</svg>

<svg xmlns="http://www.w3.org/2000/svg" width="112" height="94" fill="none" viewBox="0 0 112 94"><circle cx="71.57" cy="40.795" r="40" fill="#EBF3FA"/><path fill="#fff" fill-rule="evenodd" d="M84.866 64.207H5.14a4 4 0 0 1-4-4V21.384a4 4 0 0 1 4-4h79.725a4 4 0 0 1 4 4v38.823a4 4 0 0 1-4 4" clip-rule="evenodd"/><path stroke="#112E51" d="M84.866 64.207H5.14a4 4 0 0 1-4-4V21.384a4 4 0 0 1 4-4h79.725a4 4 0 0 1 4 4v38.823a4 4 0 0 1-4 4Z" clip-rule="evenodd"/><path fill="#EBF3FA" fill-rule="evenodd" d="M28.912 59.19H8.362c-.907 0-1.643-.66-1.643-1.475V34.104c0-.815.736-1.476 1.644-1.476h20.549c.907 0 1.644.661 1.644 1.476v23.611c0 .815-.737 1.476-1.644 1.476" clip-rule="evenodd"/><mask id="a" width="21" height="25" x="8" y="35" maskUnits="userSpaceOnUse" style="mask-type:luminance"><path fill="#fff" fill-rule="evenodd" d="M12.93 40.814v.606a1.18 1.18 0 0 0-.991 1.16v1.374c0 .594.444 1.084 1.02 1.166a5.5 5.5 0 0 0 3.145 4.387v1.805h-.397c-3.944 0-7.14 3.163-7.14 7.064v.882H28.4v-.882c0-3.901-3.197-7.064-7.14-7.064h-.397v-1.805a5.5 5.5 0 0 0 3.143-4.387 1.18 1.18 0 0 0 1.022-1.166v-1.373a1.18 1.18 0 0 0-.992-1.16v-.607c0-3.034-2.486-5.494-5.553-5.494s-5.554 2.46-5.554 5.494" clip-rule="evenodd"/></mask><g mask="url(#a)"><path fill="#C8D3DD" fill-rule="evenodd" d="M1.281 63.369h34.402V31.21H1.28z" clip-rule="evenodd"/></g><path fill="#EBF3FA" d="M56.248 25.516a2 2 0 0 1 2-2h23.338a2 2 0 0 1 2 2v23.338a2 2 0 0 1-2 2H58.248a2 2 0 0 1-2-2z"/><rect width="44.487" height="3.344" x="6.719" y="23.516" fill="#C8D3DD" rx="1.672"/><rect width="16.303" height="3.344" x="34.904" y="31.44" fill="#C8D3DD" rx="1.672"/><rect width="16.303" height="3.344" x="34.904" y="39.365" fill="#C8D3DD" rx="1.672"/><rect width="16.303" height="3.344" x="34.904" y="47.29" fill="#C8D3DD" rx="1.672"/><rect width="12.3" height="3.344" x="34.904" y="55.819" fill="#C8D3DD" rx="1.672"/><rect width="29.972" height="3.344" x="52.674" y="55.819" fill="#C8D3DD" rx="1.672"/><path fill="#fff" fill-rule="evenodd" d="M101.098 93.207H21.373a4 4 0 0 1-4-4V50.384a4 4 0 0 1 4-4h79.725a4 4 0 0 1 4 4v38.823a4 4 0 0 1-4 4" clip-rule="evenodd"/><path stroke="#112E51" d="M101.098 93.207H21.373a4 4 0 0 1-4-4V50.384a4 4 0 0 1 4-4h79.725a4 4 0 0 1 4 4v38.823a4 4 0 0 1-4 4Z" clip-rule="evenodd"/><path fill="#EBF3FA" fill-rule="evenodd" d="M45.144 88.19H24.595c-.907 0-1.644-.66-1.644-1.475V63.104c0-.815.737-1.476 1.644-1.476h20.55c.907 0 1.643.661 1.643 1.476v23.611c0 .815-.736 1.476-1.644 1.476" clip-rule="evenodd"/><mask id="b" width="21" height="25" x="24" y="64" maskUnits="userSpaceOnUse" style="mask-type:luminance"><path fill="#fff" fill-rule="evenodd" d="M29.163 69.814v.606a1.18 1.18 0 0 0-.992 1.16v1.374c0 .595.444 1.084 1.021 1.166a5.5 5.5 0 0 0 3.144 4.387v1.805h-.397c-3.944 0-7.14 3.163-7.14 7.064v.882h19.835v-.882c0-3.901-3.198-7.064-7.14-7.064h-.398v-1.805a5.5 5.5 0 0 0 3.143-4.387 1.18 1.18 0 0 0 1.022-1.166v-1.373a1.18 1.18 0 0 0-.991-1.16v-.607c0-3.034-2.487-5.494-5.553-5.494-3.068 0-5.554 2.46-5.554 5.494" clip-rule="evenodd"/></mask><g mask="url(#b)"><path fill="#C8D3DD" fill-rule="evenodd" d="M17.514 92.369h34.401V60.21H17.514z" clip-rule="evenodd"/></g><path fill="#EBF3FA" d="M72.48 54.516a2 2 0 0 1 2-2h23.338a2 2 0 0 1 2 2v23.338a2 2 0 0 1-2 2H74.481a2 2 0 0 1-2-2z"/><rect width="44.487" height="3.344" x="22.951" y="52.516" fill="#C8D3DD" rx="1.672"/><rect width="16.303" height="3.344" x="51.137" y="60.44" fill="#C8D3DD" rx="1.672"/><rect width="16.303" height="3.344" x="51.137" y="68.365" fill="#C8D3DD" rx="1.672"/><rect width="16.303" height="3.344" x="51.137" y="76.29" fill="#C8D3DD" rx="1.672"/><rect width="12.3" height="3.344" x="51.137" y="84.819" fill="#C8D3DD" rx="1.672"/><rect width="29.972" height="3.344" x="68.906" y="84.819" fill="#C8D3DD" rx="1.672"/><path fill="#0071BB" d="m74.188 55.727 8.876 6.854c.208.23.23.738-.507 1.68-.582.743.003 1.264.356 1.423v-1.046c0-.59.629-.738.781-.738h.892a10 10 0 0 1 0-.755c.017-.167-.17-.362-.429-.362-.21 0-.49.207-.615.362-.17-.412.1-1.664.375-1.972.274-.31.943-.31 1.527-.48.583-.172 1.612.05 1.852.36.192.247.423 1.898.515 2.693.074-.012.34-.028.806 0 .467.027.56.434.549.634v1.407c.446 0 .686-.378.823-.686s-.223-.858-.566-1.201-.6-.84-.257-1.235 8.422-6.604 8.697-6.776.669-.154.977 0c.31.155.412 1.39.206 1.836s-.411 1.063-.206 1.56c.206.498-.171.944-.446 1.39-.274.446-.051.583 0 1.132.052.55-.326.824-.806 1.252-.48.43-.068.55 0 .978.069.429-.84 1.441-1.218 1.561-.377.12-.428.24-.566.618-.137.377-.995.772-1.406.806-.412.034-.412.514-.96.72-.55.206-.584-.154-.876.21-.291.363-.875.648-1.475.75s-.737-.75-.943-.325c-.165.34-.55.233-.72.137v2.101c-.104.06-.368.233-.601.441-.292.26.446 1.146.6 1.42.155.275.48.327.566 0 .069-.26.486-.23.686-.182L93.06 73.3l-2.813 1.04c-.132 0-.409-.064-.464-.32-.068-.319-.411 0-.669.206-.257.206-.12.113-.72 0s-.24.258-.79.826a24 24 0 0 0-1.098 1.238h-.563c0-.243-.61-.422-1.154-1.238s-.957-.853-1.154-.713-.59-.103-.628-.319c-.03-.172-.457-.128-.666-.084v.403h-2.214v-2.045c.698-.03 2.09-.075 2.083 0-.01.094.103.329.347.329.9.037.938-1.323.985-1.567.037-.195-.404-.375-.629-.44.006-.523.015-1.637 0-1.914-.019-.347-.572-.535-.891-.488s-.16.206-.807.488c-.647.281-1.07-.544-1.341-.75-.272-.207-.629-.038-1.013-.123-.385-.084-.019-.788-.807-.788s-.993-.427-1.296-.629c-.302-.202-.05-.756-.201-.806s-.555-.076-1.008-.378c-.454-.303-.655-.832-.63-1.084s.302-.655-.202-.832-.882-1.36-.756-1.537.227-.806-.126-1.159-.504-1.184-.428-1.562c.075-.378.277-.303.151-.706s-.53-1.386-.378-2.167c.12-.625.722-.563 1.008-.454"/></svg>
